; generated by PrusaSlicer 2.1.0 on 2019-11-26 at 19:06:06 UTC

; 

; external perimeters extrusion width = 0.45mm
; perimeters extrusion width = 0.45mm
; infill extrusion width = 0.45mm
; solid infill extrusion width = 0.45mm
; top infill extrusion width = 0.40mm
; support material extrusion width = 0.40mm
; first layer extrusion width = 0.70mm

M73 P0 R175
M73 Q0 S160
M201 X1000 Y1000 Z1000 E5000 ; sets maximum accelerations, mm/sec^2
M203 X200 Y200 Z12 E120 ; sets maximum feedrates, mm/sec
M204 P1250 R1250 T1250 ; sets acceleration (P, T) and retract acceleration (R), mm/sec^2
M205 X5.00 Y5.00 Z0.40 E1.50 ; sets the jerk limits, mm/sec
M205 S0 T0 ; sets the minimum extruding and travel feed rate, mm/sec
M107
G28 Y0 X0 Z0  ;
M140 S70 ; set bed temp
M190 S70 ; wait for bed temp
M104 S240 ; set extruder temp
M109 S240 ; wait for extruder temp
M300 S1000 P500 ; chirp
G1 Y-3.0 X0.0 F4000.0 ; go outside print area
G1 Z0.0 F300.0; 
G1 X90 E15.0  F1000.0 ; intro line
M73 Q0 S160
M73 P0 R175
G92 E0.0
G21 ; set units to millimeters
G90 ; use absolute coordinates
M82 ; use absolute distances for extrusion
G92 E0
; Filament gcode
G1 Z0.350 F13800.000
G1 E-5.00000 F2400.00000
G92 E0
G1 X135.900 Y50.149 F13800.000
G1 E5.00000 F2400.00000
G1 F1500
G1 X154.724 Y50.175 E6.71168
G1 X155.878 Y50.395 E6.81846
G1 X156.698 Y50.719 E6.89866
G1 X157.469 Y51.167 E6.97977
G1 X158.659 Y52.291 E7.12859
G1 X159.494 Y53.716 E7.27876
G1 X159.775 Y54.651 E7.36754
G1 X159.898 Y55.666 E7.46052
G1 X159.889 Y64.155 E8.23245
G1 X159.715 Y65.271 E8.33507
G1 X159.306 Y66.365 E8.44128
G1 X158.637 Y67.406 E8.55380
G1 X157.783 Y68.260 E8.66366
G1 X156.482 Y69.048 E8.80196
G1 X155.413 Y69.392 E8.90401
G1 X154.507 Y69.511 E8.98717
G1 X150.901 Y69.510 E9.31502
G1 X150.003 Y69.391 E9.39736
G1 X150.672 Y70.423 E9.50913
G1 X150.999 Y71.203 E9.58606
G1 X151.203 Y72.226 E9.68097
G1 X151.208 Y85.039 E10.84600
G1 X151.062 Y85.863 E10.92212
G1 X150.760 Y86.617 E10.99594
G1 X150.355 Y87.249 E11.06422
G1 X149.718 Y87.896 E11.14681
G1 X149.921 Y88.297 E11.18762
G1 X150.859 Y88.161 E11.27380
G1 X154.602 Y88.164 E11.61418
G1 X155.684 Y88.341 E11.71392
G1 X156.753 Y88.746 E11.81785
G1 X157.746 Y89.378 E11.92483
G1 X158.587 Y90.201 E12.03184
G1 X159.360 Y91.416 E12.16274
G1 X159.730 Y92.456 E12.26313
G1 X159.889 Y93.521 E12.36108
G1 X159.895 Y102.049 E13.13655
G1 X159.741 Y103.170 E13.23945
G1 X159.360 Y104.252 E13.34372
G1 X158.747 Y105.267 E13.45155
G1 X157.963 Y106.111 E13.55627
G1 X156.442 Y107.068 E13.71970
G1 X155.470 Y107.379 E13.81244
G1 X154.383 Y107.518 E13.91213
G1 X135.900 Y107.521 E15.59281
G1 X135.898 Y115.512 E16.31944
G1 X135.722 Y116.740 E16.43229
G1 X135.251 Y117.972 E16.55215
G1 X134.649 Y118.891 E16.65209
G1 X133.869 Y119.689 E16.75355
G1 X132.461 Y120.559 E16.90410
G1 X131.536 Y120.864 E16.99265
G1 X130.506 Y121.010 E17.08727
G1 X122.064 Y121.021 E17.85487
G1 X120.842 Y120.852 E17.96706
G1 X120.108 Y120.594 E18.03780
G1 X119.451 Y120.595 E18.09756
G1 X119.173 Y120.626 E18.12294
G1 X117.005 Y120.626 E18.32009
G1 X116.725 Y120.594 E18.34575
G1 X115.134 Y120.575 E18.49040
G1 X114.422 Y120.419 E18.55668
G1 X113.733 Y120.130 E18.62457
G1 X113.160 Y119.763 E18.68651
G1 X111.998 Y118.588 E18.83673
G1 X111.656 Y118.029 E18.89631
G1 X111.399 Y117.411 E18.95721
G1 X111.247 Y116.774 E19.01676
G1 X111.219 Y109.660 E19.66359
G1 X94.966 Y109.479 E21.14159
G1 X94.869 Y117.544 E21.87503
G1 X94.714 Y118.586 E21.97082
G1 X94.224 Y119.878 E22.09640
G1 X93.623 Y120.793 E22.19597
G1 X92.891 Y121.549 E22.29167
G1 X91.503 Y122.425 E22.44094
G1 X90.530 Y122.755 E22.53435
G1 X89.490 Y122.904 E22.62988
G1 X80.993 Y122.823 E23.40257
G1 X79.781 Y122.645 E23.51395
G1 X78.336 Y122.058 E23.65578
G1 X77.605 Y121.549 E23.73673
G1 X76.956 Y120.935 E23.81795
G1 X76.156 Y119.770 E23.94651
G1 X75.675 Y118.506 E24.06948
G1 X75.507 Y117.259 E24.18392
G1 X75.616 Y107.542 E25.06753
G1 X74.242 Y107.736 E25.19370
G1 X55.735 Y107.750 E26.87653
G1 X55.731 Y115.869 E27.61477
G1 X55.562 Y116.983 E27.71728
G1 X55.157 Y118.076 E27.82327
G1 X54.465 Y119.156 E27.93986
G1 X53.520 Y120.073 E28.05962
G1 X52.352 Y120.770 E28.18325
G1 X51.455 Y121.078 E28.26954
G1 X50.451 Y121.236 E28.36192
G1 X41.934 Y121.259 E29.13638
G1 X40.794 Y121.115 E29.24090
G1 X39.598 Y120.700 E29.35599
G1 X38.573 Y120.067 E29.46553
G1 X37.742 Y119.282 E29.56950
G1 X36.768 Y117.675 E29.74041
G1 X36.487 Y116.729 E29.83012
G1 X36.370 Y115.737 E29.92096
G1 X36.354 Y92.595 E32.02524
G1 X36.559 Y91.597 E32.11782
G1 X36.843 Y90.943 E32.18267
G1 X37.464 Y90.007 E32.28481
G1 X38.151 Y89.343 E32.37169
G1 X38.697 Y88.984 E32.43110
G1 X46.350 Y85.897 E33.18145
G1 X46.342 Y72.240 E34.42324
G1 X38.570 Y69.100 E35.18541
G1 X37.890 Y68.600 E35.26214
G1 X37.381 Y68.052 E35.33017
G1 X36.761 Y67.082 E35.43482
G1 X36.392 Y65.988 E35.53979
G1 X36.337 Y65.488 E35.58552
G1 X36.329 Y42.367 E37.68797
G1 X36.496 Y41.186 E37.79644
G1 X36.884 Y40.111 E37.90035
G1 X37.489 Y39.124 E38.00557
G1 X38.294 Y38.267 E38.11253
G1 X39.661 Y37.393 E38.26007
G1 X40.654 Y37.051 E38.35555
G1 X41.676 Y36.898 E38.44948
G1 X50.276 Y36.888 E39.23147
G1 X51.343 Y37.039 E39.32950
G1 X52.316 Y37.366 E39.42279
G1 X53.684 Y38.229 E39.56988
G1 X54.536 Y39.125 E39.68235
G1 X55.118 Y40.069 E39.78314
G1 X55.514 Y41.140 E39.88705
G1 X55.681 Y42.194 E39.98407
G1 X55.699 Y50.378 E40.72821
G1 X72.700 Y50.379 E42.27410
G1 X72.727 Y44.844 E42.77745
G1 X72.879 Y44.206 E42.83703
G1 X73.117 Y43.626 E42.89408
G1 X73.433 Y43.088 E42.95083
G1 X74.760 Y41.762 E43.12140
G1 X75.299 Y41.444 E43.17830
G1 X75.931 Y41.190 E43.24019
G1 X76.516 Y41.054 E43.29488
G1 X77.276 Y41.034 E43.36396
G1 X77.586 Y40.577 E43.41414
G1 X78.671 Y39.542 E43.55050
G1 X79.728 Y38.936 E43.66125
G1 X80.951 Y38.556 E43.77775
G1 X82.136 Y38.457 E43.88584
G1 X90.270 Y38.551 E44.62551
G1 X91.494 Y38.743 E44.73820
G1 X92.801 Y39.277 E44.86662
G1 X93.748 Y39.946 E44.97202
G1 X94.452 Y40.679 E45.06446
G1 X94.675 Y41.008 E45.10061
G1 X95.573 Y41.228 E45.18466
G1 X96.299 Y41.543 E45.25660
G1 X97.008 Y42.012 E45.33387
G1 X97.805 Y42.784 E45.43479
G1 X98.399 Y43.652 E45.53047
G1 X98.773 Y44.578 E45.62128
G1 X98.941 Y45.526 E45.70875
G1 X98.941 Y52.147 E46.31085
G1 X111.217 Y52.286 E47.42718
G1 X111.244 Y43.435 E48.23202
G1 X111.460 Y42.526 E48.31694
G1 X111.875 Y41.629 E48.40682
G1 X112.367 Y40.959 E48.48243
G1 X113.126 Y40.220 E48.57875
G1 X113.939 Y39.691 E48.66696
G1 X114.753 Y39.364 E48.74669
G1 X115.532 Y39.204 E48.81900
G1 X117.508 Y39.186 E48.99875
G1 X117.884 Y38.648 E49.05841
G1 X118.862 Y37.740 E49.17979
G1 X119.826 Y37.174 E49.28145
G1 X120.933 Y36.794 E49.38785
G1 X122.029 Y36.649 E49.48835
G1 X130.408 Y36.649 E50.25029
G1 X131.916 Y36.906 E50.38932
G1 X132.856 Y37.299 E50.48194
G1 X133.719 Y37.855 E50.57534
G1 X134.782 Y38.950 E50.71411
G1 X135.436 Y40.084 E50.83315
G1 X135.771 Y41.133 E50.93333
G1 X135.900 Y42.200 E51.03101
G1 X135.900 Y50.089 E51.74836
G1 X135.275 Y50.773 F13800.000
G1 F1500
G1 X154.639 Y50.795 E53.50913
G1 X155.677 Y50.987 E53.60508
G1 X156.445 Y51.291 E53.68022
G1 X157.121 Y51.687 E53.75143
G1 X158.195 Y52.712 E53.88646
G1 X158.906 Y53.931 E54.01474
G1 X159.169 Y54.805 E54.09770
G1 X159.273 Y55.684 E54.17821
G1 X159.264 Y64.131 E54.94635
G1 X159.118 Y65.085 E55.03412
G1 X158.759 Y66.060 E55.12852
G1 X158.171 Y66.989 E55.22855
G1 X157.368 Y67.791 E55.33174
G1 X156.256 Y68.464 E55.44992
G1 X155.251 Y68.788 E55.54593
G1 X154.449 Y68.888 E55.61937
G1 X150.926 Y68.885 E55.93972
G1 X150.029 Y68.754 E56.02218
G1 X149.193 Y68.480 E56.10216
G1 X148.248 Y68.815 E56.19332
G1 X148.885 Y69.260 E56.26389
G1 X149.699 Y70.074 E56.36861
G1 X150.108 Y70.693 E56.43603
G1 X150.411 Y71.415 E56.50729
G1 X150.578 Y72.257 E56.58533
G1 X150.583 Y85.010 E57.74493
G1 X150.454 Y85.717 E57.81026
G1 X150.194 Y86.351 E57.87256
G1 X149.851 Y86.878 E57.92981
G1 X148.904 Y87.823 E58.05145
G1 X148.390 Y88.154 E58.10702
G1 X147.873 Y88.376 E58.15819
G1 X147.928 Y88.840 E58.20072
G1 X148.470 Y88.931 E58.25062
G1 X149.193 Y89.188 E58.32044
G1 X150.028 Y88.914 E58.40030
G1 X150.882 Y88.786 E58.47885
G1 X154.575 Y88.789 E58.81465
G1 X155.549 Y88.952 E58.90443
G1 X156.497 Y89.317 E58.99685
G1 X157.379 Y89.885 E59.09217
G1 X158.121 Y90.619 E59.18709
G1 X158.812 Y91.718 E59.30513
G1 X159.117 Y92.579 E59.38822
G1 X159.264 Y93.546 E59.47712
G1 X159.273 Y101.986 E60.24456
G1 X159.126 Y103.052 E60.34246
G1 X158.783 Y104.009 E60.43493
G1 X158.231 Y104.913 E60.53116
G1 X157.535 Y105.654 E60.62359
G1 X156.213 Y106.485 E60.76559
G1 X155.308 Y106.775 E60.85202
G1 X154.326 Y106.896 E60.94197
G1 X135.275 Y106.896 E62.67433
G1 X135.273 Y115.489 E63.45568
G1 X135.109 Y116.614 E63.55906
G1 X134.682 Y117.712 E63.66623
G1 X134.145 Y118.521 E63.75453
G1 X133.505 Y119.180 E63.83803
G1 X132.229 Y119.978 E63.97490
G1 X131.368 Y120.261 E64.05730
G1 X130.443 Y120.388 E64.14223
G1 X122.086 Y120.396 E64.90212
G1 X120.962 Y120.238 E65.00526
G1 X120.218 Y119.969 E65.07721
G1 X119.411 Y119.970 E65.15064
G1 X119.153 Y120.001 E65.17427
G1 X117.025 Y120.001 E65.36773
G1 X116.766 Y119.970 E65.39148
G1 X115.232 Y119.957 E65.53101
G1 X114.632 Y119.829 E65.58673
G1 X114.040 Y119.585 E65.64499
G1 X113.577 Y119.296 E65.69460
G1 X112.470 Y118.177 E65.83771
G1 X112.205 Y117.731 E65.88493
G1 X111.999 Y117.233 E65.93389
G1 X111.871 Y116.731 E65.98101
G1 X111.842 Y109.042 E66.68015
G1 X94.349 Y108.847 E68.27089
G1 X94.245 Y117.515 E69.05910
G1 X94.102 Y118.460 E69.14599
G1 X93.682 Y119.566 E69.25357
G1 X93.152 Y120.380 E69.34194
G1 X92.468 Y121.088 E69.43142
G1 X91.267 Y121.845 E69.56052
G1 X90.358 Y122.154 E69.64781
G1 X89.428 Y122.282 E69.73314
G1 X81.021 Y122.198 E70.49767
G1 X79.910 Y122.033 E70.59976
G1 X78.664 Y121.525 E70.72208
G1 X77.982 Y121.050 E70.79766
G1 X77.413 Y120.507 E70.86927
G1 X76.694 Y119.451 E70.98538
G1 X76.273 Y118.322 E71.09493
G1 X76.132 Y117.244 E71.19380
G1 X76.251 Y106.607 E72.16108
G1 X75.310 Y106.953 E72.25227
G1 X74.218 Y107.111 E72.35254
G1 X55.110 Y107.125 E74.09004
G1 X55.106 Y115.846 E74.88298
G1 X54.964 Y116.800 E74.97074
G1 X54.610 Y117.772 E75.06479
G1 X54.000 Y118.737 E75.16859
G1 X53.167 Y119.556 E75.27482
G1 X52.062 Y120.215 E75.39180
G1 X51.282 Y120.477 E75.46661
G1 X50.426 Y120.612 E75.54542
G1 X41.953 Y120.634 E76.31583
G1 X40.906 Y120.500 E76.41188
G1 X39.894 Y120.149 E76.50922
G1 X38.978 Y119.590 E76.60683
G1 X38.202 Y118.857 E76.70389
G1 X37.354 Y117.456 E76.85273
G1 X37.104 Y116.626 E76.93158
G1 X36.995 Y115.717 E77.01482
G1 X36.979 Y92.628 E79.11430
G1 X37.164 Y91.759 E79.19506
G1 X37.378 Y91.266 E79.24397
G1 X37.965 Y90.383 E79.34034
G1 X38.559 Y89.817 E79.41497
G1 X39.010 Y89.525 E79.46383
G1 X46.975 Y86.319 E80.24454
G1 X46.966 Y71.818 E81.56311
G1 X38.905 Y68.571 E82.35335
G1 X38.324 Y68.150 E82.41861
G1 X37.889 Y67.686 E82.47643
G1 X37.339 Y66.840 E82.56818
G1 X37.009 Y65.883 E82.66023
G1 X36.962 Y65.470 E82.69802
G1 X36.951 Y42.429 E84.79311
G1 X37.096 Y41.363 E84.89101
G1 X37.435 Y40.409 E84.98304
G1 X38.004 Y39.480 E85.08214
G1 X38.720 Y38.725 E85.17674
G1 X39.902 Y37.970 E85.30426
G1 X40.778 Y37.664 E85.38863
G1 X41.701 Y37.523 E85.47348
G1 X50.213 Y37.510 E86.24751
G1 X51.173 Y37.641 E86.33560
G1 X52.080 Y37.946 E86.42259
G1 X53.314 Y38.734 E86.55577
G1 X54.023 Y39.483 E86.64951
G1 X54.544 Y40.319 E86.73913
G1 X54.903 Y41.272 E86.83172
G1 X55.056 Y42.221 E86.91912
G1 X55.076 Y51.003 E87.71765
G1 X73.322 Y51.004 E89.37679
G1 X73.351 Y44.887 E89.93304
G1 X73.478 Y44.384 E89.98016
G1 X73.685 Y43.887 E90.02912
G1 X73.950 Y43.442 E90.07626
G1 X75.114 Y42.278 E90.22590
G1 X75.558 Y42.013 E90.27296
G1 X76.097 Y41.793 E90.32591
G1 X76.624 Y41.671 E90.37507
G1 X77.621 Y41.655 E90.46571
G1 X78.048 Y40.999 E90.53686
G1 X79.019 Y40.062 E90.65958
G1 X79.951 Y39.521 E90.75756
G1 X81.040 Y39.176 E90.86145
G1 X82.144 Y39.082 E90.96219
G1 X90.239 Y39.175 E91.69836
G1 X91.360 Y39.354 E91.80152
G1 X92.472 Y39.809 E91.91085
G1 X93.319 Y40.401 E92.00479
G1 X93.979 Y41.089 E92.09147
G1 X94.329 Y41.625 E92.14967
G1 X94.648 Y41.645 E92.17871
G1 X95.351 Y41.812 E92.24439
G1 X96.024 Y42.104 E92.31109
G1 X96.635 Y42.514 E92.37798
G1 X97.344 Y43.208 E92.46822
G1 X97.863 Y43.974 E92.55237
G1 X98.164 Y44.722 E92.62570
G1 X98.316 Y45.555 E92.70264
G1 X98.316 Y52.765 E93.35828
G1 X111.840 Y52.918 E94.58817
G1 X111.861 Y43.540 E95.44089
G1 X112.042 Y42.755 E95.51417
G1 X112.400 Y41.970 E95.59267
G1 X112.825 Y41.385 E95.65838
G1 X113.496 Y40.724 E95.74405
G1 X114.205 Y40.257 E95.82119
G1 X114.912 Y39.969 E95.89066
G1 X115.570 Y39.829 E95.95182
G1 X117.845 Y39.808 E96.15868
G1 X118.339 Y39.078 E96.23886
G1 X119.212 Y38.258 E96.34770
G1 X120.063 Y37.753 E96.43775
G1 X121.049 Y37.409 E96.53266
G1 X122.050 Y37.274 E96.62452
G1 X130.383 Y37.274 E97.38219
G1 X131.708 Y37.497 E97.50443
G1 X132.588 Y37.864 E97.59111
G1 X133.347 Y38.358 E97.67347
G1 X134.304 Y39.354 E97.79908
G1 X134.852 Y40.308 E97.89911
G1 X135.155 Y41.241 E97.98825
G1 X135.275 Y42.219 E98.07792
G1 X135.275 Y50.713 E98.85026
G1 X134.650 Y51.398 F13800.000
G1 F1500
G1 X154.557 Y51.415 E100.66036
G1 X155.479 Y51.581 E100.74558
G1 X156.151 Y51.843 E100.81115
G1 X156.774 Y52.208 E100.87683
G1 X157.681 Y53.069 E100.99046
G1 X158.320 Y54.151 E101.10476
G1 X158.552 Y54.908 E101.17680
G1 X158.648 Y55.703 E101.24955
G1 X158.639 Y64.106 E102.01367
G1 X158.505 Y64.956 E102.09188
G1 X158.186 Y65.808 E102.17464
G1 X157.663 Y66.623 E102.26271
G1 X157.012 Y67.277 E102.34663
G1 X155.965 Y67.910 E102.45792
G1 X155.143 Y68.172 E102.53628
G1 X154.429 Y68.263 E102.60172
G1 X150.951 Y68.260 E102.91806
G1 X150.150 Y68.141 E102.99167
G1 X149.457 Y67.909 E103.05810
G1 X149.240 Y67.800 E103.08013
G1 X148.291 Y68.137 E103.17170
G1 X147.472 Y68.260 E103.24703
G1 X144.650 Y68.269 E103.50361
G1 X144.650 Y69.003 E103.57035
G1 X146.618 Y69.003 E103.74923
G1 X147.279 Y69.123 E103.81034
G1 X147.955 Y69.396 E103.87664
G1 X148.470 Y69.729 E103.93238
G1 X149.233 Y70.492 E104.03049
G1 X149.567 Y71.007 E104.08631
G1 X149.821 Y71.622 E104.14684
G1 X149.959 Y72.344 E104.21369
G1 X149.959 Y84.982 E105.36283
G1 X149.862 Y85.515 E105.41211
G1 X149.653 Y86.036 E105.46315
G1 X149.346 Y86.508 E105.51436
G1 X148.491 Y87.353 E105.62365
G1 X148.083 Y87.609 E105.66746
G1 X147.627 Y87.798 E105.71234
G1 X147.087 Y87.911 E105.76252
G1 X145.611 Y87.917 E105.89667
G1 X145.376 Y87.948 E105.91826
G1 X144.650 Y87.948 E105.98423
G1 X144.650 Y89.399 E106.11608
G1 X147.472 Y89.407 E106.37266
G1 X148.291 Y89.531 E106.44799
G1 X149.240 Y89.868 E106.53956
G1 X149.457 Y89.759 E106.56159
G1 X150.150 Y89.527 E106.62808
G1 X150.906 Y89.411 E106.69760
G1 X154.547 Y89.414 E107.02869
G1 X155.410 Y89.562 E107.10830
G1 X156.240 Y89.887 E107.18930
G1 X156.966 Y90.355 E107.26791
G1 X157.613 Y90.984 E107.34987
G1 X158.263 Y92.019 E107.46103
G1 X158.517 Y92.754 E107.53177
G1 X158.639 Y93.569 E107.60672
G1 X158.650 Y101.926 E108.36655
G1 X158.525 Y102.877 E108.45384
G1 X158.230 Y103.716 E108.53468
G1 X157.752 Y104.510 E108.61893
G1 X157.107 Y105.197 E108.70462
G1 X155.985 Y105.902 E108.82512
G1 X155.147 Y106.171 E108.90521
G1 X154.308 Y106.271 E108.98196
G1 X134.650 Y106.271 E110.76949
G1 X134.648 Y115.467 E111.60570
G1 X134.512 Y116.425 E111.69366
G1 X134.140 Y117.399 E111.78851
G1 X133.675 Y118.108 E111.86558
G1 X133.083 Y118.718 E111.94284
G1 X131.997 Y119.396 E112.05927
G1 X131.201 Y119.659 E112.13550
G1 X130.382 Y119.766 E112.21058
G1 X122.108 Y119.771 E112.96296
G1 X121.086 Y119.624 E113.05685
G1 X120.332 Y119.344 E113.13001
G1 X119.368 Y119.345 E113.21771
G1 X119.131 Y119.376 E113.23945
G1 X117.048 Y119.376 E113.42885
G1 X116.812 Y119.345 E113.45050
G1 X115.272 Y119.332 E113.59054
G1 X114.797 Y119.226 E113.63479
G1 X114.341 Y119.037 E113.67965
G1 X113.990 Y118.825 E113.71693
G1 X112.985 Y117.820 E113.84620
G1 X112.773 Y117.469 E113.88348
G1 X112.585 Y117.017 E113.92798
G1 X112.487 Y116.619 E113.96527
G1 X112.466 Y108.424 E114.71039
G1 X93.731 Y108.215 E116.41398
G1 X93.620 Y117.485 E117.25691
G1 X93.489 Y118.331 E117.33481
G1 X93.140 Y119.253 E117.42446
G1 X92.646 Y120.013 E117.50688
G1 X92.048 Y120.624 E117.58461
